X:29
T:His Own Kind
R:reel
C: 1978, 2010 L.E. McCullough 
M:4/4 
L:1/8
K:Amix
c~A3 ~F3A|B~A3 BcAB|c~A3 fafe|fecB ~A3B|
c~A3 ~f3a|fecA ~B2AB|c~e3 feae|fecB ~A3B|]
c~e3 feae|fafe fecB|c~e3 f~a3|fecB ~A3B|
cecB A~F3|ABce ~f3e|f~a3 feae|fecB ~A3B|]
<end>
<start>
